vendor/shopware/storefront/Resources/app/storefront/dist/assets/icon/default/view-normal.svg

<svg xmlns="http://www.w3.org/2000/svg" width="24" height="24" viewBox="0 0 24 24">
  <path fill="#758CA3" fill-rule="evenodd" d="M23,2 C23.5522847,2 24,2.44771525 24,3 C24,3.55228475 23.5522847,4 23,4 L1,4 C0.44771525,4 0,3.55228475 0,3 C0,2.44771525 0.44771525,2 1,2 L23,2 Z M23,8 C23.5522847,8 24,8.44771525 24,9 C24,9.55228475 23.5522847,10 23,10 L1,10 C0.44771525,10 0,9.55228475 0,9 C0,8.44771525 0.44771525,8 1,8 L23,8 Z M23,14 C23.5522847,14 24,14.4477153 24,15 C24,15.5522847 23.5522847,16 23,16 L1,16 C0.44771525,16 0,15.5522847 0,15 C0,14.4477153 0.44771525,14 1,14 L23,14 Z M23,20 C23.5522847,20 24,20.4477153 24,21 C24,21.5522847 23.5522847,22 23,22 L1,22 C0.44771525,22 0,21.5522847 0,21 C0,20.4477153 0.44771525,20 1,20 L23,20 Z"/>
</svg>

<svg xmlns="http://www.w3.org/2000/svg" width="24" height="24" viewBox="0 0 24 24"><path fill="#758CA3" fill-rule="evenodd" d="M23 2c.5523 0 1 .4477 1 1s-.4477 1-1 1H1c-.5523 0-1-.4477-1-1s.4477-1 1-1h22zm0 6c.5523 0 1 .4477 1 1s-.4477 1-1 1H1c-.5523 0-1-.4477-1-1s.4477-1 1-1h22zm0 6c.5523 0 1 .4477 1 1s-.4477 1-1 1H1c-.5523 0-1-.4477-1-1s.4477-1 1-1h22zm0 6c.5523 0 1 .4477 1 1s-.4477 1-1 1H1c-.5523 0-1-.4477-1-1s.4477-1 1-1h22z"/></svg>
